svg/nature/leaf_2_line.svg

<?xml version="1.0" encoding="UTF-8"?>
<svg width="24px" height="24px" viewBox="0 0 24 24" version="1.1" xmlns="http://www.w3.org/2000/svg" xmlns:xlink="http://www.w3.org/1999/xlink">
    <title>leaf_2_line</title>
    <g id="Icon" stroke="none" stroke-width="1" fill="none" fill-rule="evenodd">
        <g id="Nature" transform="translate(-432.000000, -2.000000)" fill-rule="nonzero">
            <g id="leaf_2_line" transform="translate(432.000000, 2.000000)">
                <path d="M24,0 L24,24 L0,24 L0,0 L24,0 Z M12.5935,23.2578 L12.5819,23.2595 L12.5109,23.295 L12.4919,23.2987 L12.4767,23.295 L12.4057,23.2595 C12.3958,23.2564 12.387,23.259 12.3821,23.2649 L12.378,23.2758 L12.3609,23.7031 L12.3659,23.7235 L12.3769,23.7357 L12.4805,23.8097 L12.4953,23.8136 L12.5071,23.8097 L12.6107,23.7357 L12.6233,23.7197 L12.6267,23.7031 L12.6096,23.2758 C12.6076,23.2657 12.601,23.2593 12.5935,23.2578 Z M12.8584,23.1453 L12.8445,23.1473 L12.6598,23.2397 L12.6499,23.2499 L12.6472,23.2611 L12.6651,23.6906 L12.6699,23.7034 L12.6784,23.7105 L12.8793,23.8032 C12.8914,23.8069 12.9022,23.803 12.9078,23.7952 L12.9118,23.7812 L12.8777,23.1665 C12.8753,23.1546 12.8674,23.147 12.8584,23.1453 Z M12.143,23.1473 C12.1332,23.1424 12.1222,23.1453 12.1156,23.1526 L12.1099,23.1665 L12.0758,23.7812 C12.0751,23.7927 12.0828,23.8019 12.0926,23.8046 L12.1083,23.8032 L12.3092,23.7105 L12.3186,23.7024 L12.3225,23.6906 L12.3404,23.2611 L12.3372,23.2485 L12.3278,23.2397 L12.143,23.1473 Z" id="MingCute"></path>
                <path d="M16.5001,3.20586 C18.6205,4.4301 19.505,6.97294 18.7158,9.20062 C20.5131,10.7353 21.0186,13.3797 19.7943,15.5001 C18.7487,17.3111 16.7412,18.2206 14.7898,17.9557 C14.8338,18.3269 14.8402,18.7101 14.8092,19.0832 C14.7354,19.9678 14.4344,20.9801 13.7072,21.7072 C13.3167,22.0977 12.6835,22.0977 12.293,21.7072 C11.9325385,21.3467385 11.9048107,20.7794793 12.2098166,20.3872027 L12.293,20.293 C12.5659,20.0202 12.7648,19.5324 12.8161,18.9171 C12.8254,18.8053 12.8293,18.6954 12.8285,18.5887 C11.2903,19.642 9.22237,19.7887 7.50009,18.7943 C5.37966,17.5701 4.49517,15.0272 5.28439,12.7996 C3.48706,11.2649 2.98163,8.62052 4.20586,6.50009 C5.4301,4.37966 7.97294,3.49517 10.2006,4.28439 C11.7353,2.48706 14.3797,1.98163 16.5001,3.20586 Z M11.4981146,5.88045976 L11.402,6.03599 C11.1259,6.51428 10.5143,6.67816 10.036,6.40202 C8.60111,5.57359 6.76634,6.06521 5.93792,7.50009 C5.10949,8.93497 5.60111,10.7697 7.03599,11.5982 C7.51428,11.8743 7.67816,12.4859 7.40202,12.9642 C6.57359,14.3991 7.06521,16.2338 8.50009,17.0623 C9.93497,17.8907 11.7697,17.3991 12.5982,15.9642 C12.8743,15.4859 13.4859,15.322 13.9642,15.5982 C15.3991,16.4266 17.2338,15.935 18.0623,14.5001 C18.8600185,13.1183444 18.4337041,11.3657626 17.1197323,10.4981146 L16.9642,10.402 C16.4859,10.1259 16.322,9.51428 16.5982,9.03599 C17.4266,7.60111 16.935,5.76634 15.5001,4.93791 C14.1183444,4.14017222 12.3657626,4.56650446 11.4981146,5.88045976 Z M12.0001,9.50011 C12.8285,9.50011 13.5001,10.1717 13.5001,11.00011 C13.5001,11.8285 12.8285,12.50011 12.0001,12.50011 C11.1717,12.50011 10.5001,11.8285 10.5001,11.00011 C10.5001,10.1717 11.1717,9.50011 12.0001,9.50011 Z" id="形状" fill="#09244B"></path>
            </g>
        </g>
    </g>
</svg>

<svg xmlns="http://www.w3.org/2000/svg" width="24" height="24"><g fill="none" fill-rule="nonzero"><path d="M24 0v24H0V0h24ZM12.594 23.258l-.012.002-.071.035-.02.004-.014-.004-.071-.036c-.01-.003-.019 0-.024.006l-.004.01-.017.428.005.02.01.013.104.074.015.004.012-.004.104-.074.012-.016.004-.017-.017-.427c-.002-.01-.009-.017-.016-.018Zm.264-.113-.014.002-.184.093-.01.01-.003.011.018.43.005.012.008.008.201.092c.012.004.023 0 .029-.008l.004-.014-.034-.614c-.003-.012-.01-.02-.02-.022Zm-.715.002a.023.023 0 0 0-.027.006l-.006.014-.034.614c0 .012.007.02.017.024l.015-.002.201-.093.01-.008.003-.011.018-.43-.003-.012-.01-.01-.184-.092Z"/><path fill="#09244B" d="M16.5 3.206A5.002 5.002 0 0 1 18.716 9.2a5.002 5.002 0 0 1-3.926 8.755c.044.37.05.754.02 1.127-.075.885-.376 1.897-1.103 2.624a1 1 0 0 1-1.497-1.32l.083-.094c.273-.273.472-.76.523-1.376.01-.112.013-.222.012-.328a5 5 0 0 1-7.544-5.79 5.002 5.002 0 0 1 4.917-8.515 5.002 5.002 0 0 1 6.3-1.078ZM11.498 5.88l-.096.156a1 1 0 0 1-1.366.366 3 3 0 1 0-3 5.196 1 1 0 0 1 .366 1.366 3 3 0 0 0 5.196 3 1 1 0 0 1 1.366-.366 3 3 0 0 0 3.156-5.1l-.156-.096a1 1 0 0 1-.366-1.366 3 3 0 0 0-5.1-3.156ZM12 9.5a1.5 1.5 0 1 1 0 3 1.5 1.5 0 0 1 0-3Z"/></g></svg>
